X:1
T:Title
%%score { ( 1 3 ) | 2 }
L:1/8
M:4/4
K:Bb
V:1 treble nm="Grand Piano"
V:3 treble 
V:2 bass 
V:1
 z4 z2[Q:1/4=110] [DF]2 | [Fd]2 [Fd]2 [Ec]2 [DB]2 | [Fd]2 [Fd]2 [DB]2 F2 | G2 c2 B2 G2 | %4
[M:3/4] [DF]6 |[M:1/4] F2 |[M:4/4] [Fd]2 [Fd]2 [Ec]2 [DB]2 | [Fd]2 [Fd]2 [DB]2 [DF]2 | %8
 [EG]2 [Ec]2 [=Ec]2 [Ed]2 |[M:3/4] [Ec]6 |[M:1/4] [DF]2 |[M:4/4] [Fd]2 [Fd]2 [Ec]2 [DB]2 | %12
 [Fd]6 z2 | [Ge]2 [Ge]2 [GB]2 [^Fc]2 |[M:3/4] [Fd]6 |[M:1/4] [B,DF]2 | %16
[M:4/4] [B,EG]2 [B,EG]2 [=Ec]2 [CEB]2 | [CFA]2 F-[Fc] d2 [Ge]2 | d3 d c2 c2 |[M:3/4] [DB]6 |] %20
V:2
 z4 z2 [B,,B,]2 | [B,,B,]2 [B,,B,]2 [B,,B,]2 [B,,F,]2 | [B,,B,]2 [B,,B,]2 [B,,B,]2 [D,B,]2 | %3
 [E,B,E]2 [E,G,E]2 [E,G,E]2 [E,B,E]2 |[M:3/4] [B,,B,]6 |[M:1/4] [B,,B,]2 | %6
[M:4/4] [B,,B,]2 [B,,B,]2 [B,,F,]2 [B,,F,]2 | [B,,B,]2 [B,,B,]2 [B,,B,]2 [B,,B,]2 | %8
 [E,B,]2 [E,G,]2 [C,G,]2 [C,B,]2 |[M:3/4] [F,A,]6 |[M:1/4] [B,,B,]2 |[M:4/4] [B,,B,]4 [B,,F,]4 | %12
 [B,,B,]2 B,,2 B,,2 _A2 | [E,B,]4 [E,B,]4 |[M:3/4] [B,,B,]2 B,,2 B,,2 |[M:1/4] B,,2 | %16
[M:4/4] E,2 E,2 [C,B,]2 C,2 | F,E,D,[F,A,] [B,F]2 [E,B,]2 | [F,B,F]3 [F,B,F] [F,A,E]2 [F,E]2 | %19
[M:3/4] [B,,F,]6 |] %20
V:3
 x8 | x8 | x8 | x8 |[M:3/4] x6 |[M:1/4] x2 |[M:4/4] x8 | x8 | x8 |[M:3/4] x6 |[M:1/4] x2 | %11
[M:4/4] x8 | z2 B,2 B,2 d2 | x8 |[M:3/4] z2 B,2 B,2 |[M:1/4] x2 |[M:4/4] x8 | z2 .[B,B]2 z4 | x8 | %19
[M:3/4] x6 |] %20

